svgs/sharp-solid/stapler.svg

<svg xmlns="http://www.w3.org/2000/svg" viewBox="0 0 640 512"><!--! Font Awesome Pro 6.6.0 by @fontawesome - https://fontawesome.com License - https://fontawesome.com/license (Commercial License) Copyright 2024 Fonticons, Inc. --><path d="M640 240l0 64 0 176-96 0-96 0L32 480l0-64 416 0 0-48-320 0-64 0 0-64 0-84.6L0 208l52.1-95.6c27-49.6 79-80.4 135.4-80.4c24 0 47.6 5.6 69 16.3L640 240zm-512-9.1l0 73.1 320 0 0-16L128 230.9z"/></svg>

<svg xmlns="http://www.w3.org/2000/svg" viewBox="0 0 640 512"><!--! Font Awesome Pro 6.4.2 by @fontawesome - https://fontawesome.com License - https://fontawesome.com/license (Commercial License) Copyright 2023 Fonticons, Inc. --><path d="M640 240v64V480H544 448 32V416H448V368H128 64V304 219.4L0 208l52.1-95.6c27-49.6 79-80.4 135.4-80.4c24 0 47.6 5.6 69 16.3L640 240zm-512-9.1V304H448V288L128 230.9z"/></svg>
